X:140
T: GUTEN ABEND LIEBES KIND
N: E0728
O: Europa, Mitteleuropa, Deutschland, Schlesien; Thueringen
R: Liebes - Lied, Leid, Klage; Gesang mit Pantomime
M: 2/4
L: 1/16
K: G
DFG2A2 | B4A4 | G2
AAB2ce | d4c4 | B4z2
BB | d2B2dcA2 | B2
GGA2dc | B4A4 | G4z4 | z2

